actions/16/draw-booleans.svg

<?xml version="1.0" encoding="UTF-8" standalone="no"?>
<!-- Created with Inkscape (http://www.inkscape.org/) -->

<svg
   width="16"
   height="16"
   viewBox="0 0 4.2333332 4.2333333"
   version="1.1"
   id="svg1"
   xmlns:xlink="http://www.w3.org/1999/xlink"
   xmlns="http://www.w3.org/2000/svg"
   xmlns:svg="http://www.w3.org/2000/svg"
   xmlns:rdf="http://www.w3.org/1999/02/22-rdf-syntax-ns#"
   xmlns:cc="http://creativecommons.org/ns#"
   xmlns:dc="http://purl.org/dc/elements/1.1/">
  <defs>
   <style id="current-color-scheme" type="text/css">
   .ColorScheme-Text { color: #0abdc6; } .ColorScheme-Highlight { color:#5294e2; }
  </style>
  <linearGradient id="arrongin" x1="0%" x2="0%" y1="0%" y2="100%">
   <stop offset="0%" style="stop-color:#dd9b44; stop-opacity:1"/>
   <stop offset="100%" style="stop-color:#ad6c16; stop-opacity:1"/>
  </linearGradient>
  <linearGradient id="aurora" x1="0%" x2="0%" y1="0%" y2="100%">
   <stop offset="0%" style="stop-color:#09D4DF; stop-opacity:1"/>
   <stop offset="100%" style="stop-color:#9269F4; stop-opacity:1"/>
  </linearGradient>
  <linearGradient id="cyberneon" x1="0%" x2="0%" y1="0%" y2="100%">
    <stop offset="0" style="stop-color:#0abdc6; stop-opacity:1"/>
    <stop offset="1" style="stop-color:#ea00d9; stop-opacity:1"/>
  </linearGradient>
  <linearGradient id="fitdance" x1="0%" x2="0%" y1="0%" y2="100%">
   <stop offset="0%" style="stop-color:#1AD6AB; stop-opacity:1"/>
   <stop offset="100%" style="stop-color:#329DB6; stop-opacity:1"/>
  </linearGradient>
  <linearGradient id="oomox" x1="0%" x2="0%" y1="0%" y2="100%">
   <stop offset="0%" style="stop-color:#0abdc6; stop-opacity:1"/>
   <stop offset="100%" style="stop-color:#b800ff; stop-opacity:1"/>
  </linearGradient>
  <linearGradient id="rainblue" x1="0%" x2="0%" y1="0%" y2="100%">
   <stop offset="0%" style="stop-color:#00F260; stop-opacity:1"/>
   <stop offset="100%" style="stop-color:#0575E6; stop-opacity:1"/>
  </linearGradient>
  <linearGradient id="sunrise" x1="0%" x2="0%" y1="0%" y2="100%">
   <stop offset="0%" style="stop-color: #FF8501; stop-opacity:1"/>
   <stop offset="100%" style="stop-color: #FFCB01; stop-opacity:1"/>
  </linearGradient>
  <linearGradient id="telinkrin" x1="0%" x2="0%" y1="0%" y2="100%">
   <stop offset="0%" style="stop-color: #b2ced6; stop-opacity:1"/>
   <stop offset="100%" style="stop-color: #6da5b7; stop-opacity:1"/>
  </linearGradient>
  <linearGradient id="60spsycho" x1="0%" x2="0%" y1="0%" y2="100%">
   <stop offset="0%" style="stop-color: #df5940; stop-opacity:1"/>
   <stop offset="25%" style="stop-color: #d8d15f; stop-opacity:1"/>
   <stop offset="50%" style="stop-color: #e9882a; stop-opacity:1"/>
   <stop offset="100%" style="stop-color: #279362; stop-opacity:1"/>
  </linearGradient>
  <linearGradient id="90ssummer" x1="0%" x2="0%" y1="0%" y2="100%">
   <stop offset="0%" style="stop-color: #f618c7; stop-opacity:1"/>
   <stop offset="20%" style="stop-color: #94ffab; stop-opacity:1"/>
   <stop offset="50%" style="stop-color: #fbfd54; stop-opacity:1"/>
   <stop offset="100%" style="stop-color: #0f83ae; stop-opacity:1"/>
  </linearGradient>
 </defs>
  <g
     id="layer1"
     transform="matrix(1.1460547,0,0,1.1460547,-0.30914933,-0.30914939)">
    <path
       id="path10"
       style="font-variation-settings:normal;display:inline;opacity:1;vector-effect:none;fill:url(#oomox);fill-opacity:1;fill-rule:nonzero;stroke:none;stroke-width:0.444122;stroke-linecap:butt;stroke-linejoin:miter;stroke-miterlimit:4;stroke-dasharray:none;stroke-dashoffset:0;stroke-opacity:1;-inkscape-stroke:none;stop-color:#000000;stop-opacity:1"
       class="ColorScheme-Text"
       d="m 1.5822773,1.5822774 v 1.0481659 c 0.091374,0 0.1803369,-0.011961 0.2648758,-0.034011 V 1.8471531 H 2.596432 C 2.618482,1.7626141 2.630443,1.6736513 2.630443,1.5822774 Z m 1.3125264,0 c -4e-7,0.090649 -0.00883,0.1794268 -0.026281,0.2648757 H 3.6992221 V 3.6992222 H 1.8471531 V 2.8685223 c -0.085449,0.017453 -0.1742279,0.026282 -0.2648758,0.026282 V 3.9635826 H 3.9635826 V 1.5822774 Z" />
    <path
       d="m 2.8949138,1.5823325 c 0,0.090649 -0.00916,0.1791344 -0.026613,0.2645833 H 2.5965415 c 0.02205,-0.084539 0.033789,-0.1732096 0.033789,-0.2645833 z M 1.8469157,2.8683006 C 1.7614667,2.8857499 1.6729809,2.894914 1.5823324,2.894914 V 2.6303305 c 0.091374,0 0.1800443,-0.011739 0.2645833,-0.033789 z"
       style="font-variation-settings:normal;opacity:1;vector-effect:none;fill:url(#oomox);fill-opacity:1;fill-rule:nonzero;stroke:none;stroke-width:0.444122;stroke-linecap:butt;stroke-linejoin:miter;stroke-miterlimit:4;stroke-dasharray:none;stroke-dashoffset:0;stroke-opacity:1;-inkscape-stroke:none;stop-color:#000000;stop-opacity:1"
       id="path6"
       class="ColorScheme-Text" />
    <path
       id="path9"
       class="ColorScheme-Text"
       style="font-variation-settings:normal;opacity:1;vector-effect:none;fill:url(#oomox);fill-opacity:1;fill-rule:nonzero;stroke:none;stroke-width:0.444122;stroke-linecap:butt;stroke-linejoin:miter;stroke-miterlimit:4;stroke-dasharray:none;stroke-dashoffset:0;stroke-opacity:1;-inkscape-stroke:none;stop-color:#000000;stop-opacity:1"
       d="m 1.5822773,0.26975098 c -0.72556264,0 -1.31252637,0.58696368 -1.31252637,1.31252642 0,0.7255629 0.58696373,1.3125264 1.31252637,1.3125264 V 2.6304433 c -0.5781031,0 -1.04816593,-0.4700628 -1.04816593,-1.0481659 0,-0.5781029 0.47006283,-1.04816598 1.04816593,-1.04816598 0.578103,0 1.048166,0.47006308 1.048166,1.04816598 h 0.2643604 c 0,-0.72556274 -0.5869635,-1.31252642 -1.3125264,-1.31252642 z M 2.596432,1.8471531 C 2.5010266,2.212936 2.2129359,2.5010267 1.8471531,2.596432 V 2.8685223 C 2.3601997,2.7637455 2.7637455,2.3601998 2.8685223,1.8471531 Z" />
  </g>
  <metadata
     id="metadata1">
    <rdf:RDF>
      <cc:Work
         rdf:about="">
        <dc:creator>
          <cc:Agent>
            <dc:title>dreifacherspass</dc:title>
          </cc:Agent>
        </dc:creator>
        <cc:license
           rdf:resource="http://creativecommons.org/licenses/by-sa/4.0/" />
      </cc:Work>
      <cc:License
         rdf:about="http://creativecommons.org/licenses/by-sa/4.0/">
        <cc:permits
           rdf:resource="http://creativecommons.org/ns#Reproduction" />
        <cc:permits
           rdf:resource="http://creativecommons.org/ns#Distribution" />
        <cc:requires
           rdf:resource="http://creativecommons.org/ns#Notice" />
        <cc:requires
           rdf:resource="http://creativecommons.org/ns#Attribution" />
        <cc:permits
           rdf:resource="http://creativecommons.org/ns#DerivativeWorks" />
        <cc:requires
           rdf:resource="http://creativecommons.org/ns#ShareAlike" />
      </cc:License>
    </rdf:RDF>
  </metadata>
</svg>

<?xml version="1.0" encoding="UTF-8" standalone="no"?>
<!-- Created with Inkscape (http://www.inkscape.org/) -->

<svg
   width="16"
   height="16"
   viewBox="0 0 4.2333332 4.2333333"
   version="1.1"
   id="svg1"
   xmlns="http://www.w3.org/2000/svg"
   xmlns:svg="http://www.w3.org/2000/svg"
   xmlns:rdf="http://www.w3.org/1999/02/22-rdf-syntax-ns#"
   xmlns:cc="http://creativecommons.org/ns#"
   xmlns:dc="http://purl.org/dc/elements/1.1/">
  <defs
     id="defs24">
    <style
       id="current-color-scheme"
       type="text/css">&#10;   .ColorScheme-Text { color: #0abdc6; } .ColorScheme-Highlight { color:#5294e2; }&#10;  </style>
    <linearGradient
       id="arrongin"
       x1="0%"
       x2="0%"
       y1="0%"
       y2="100%">
      <stop
         offset="0%"
         style="stop-color:#dd9b44; stop-opacity:1"
         id="stop1" />
      <stop
         offset="100%"
         style="stop-color:#ad6c16; stop-opacity:1"
         id="stop2" />
    </linearGradient>
    <linearGradient
       id="aurora"
       x1="0%"
       x2="0%"
       y1="0%"
       y2="100%">
      <stop
         offset="0%"
         style="stop-color:#09D4DF; stop-opacity:1"
         id="stop3" />
      <stop
         offset="100%"
         style="stop-color:#9269F4; stop-opacity:1"
         id="stop4" />
    </linearGradient>
    <linearGradient
       id="cyberneon"
       x1="0%"
       x2="0%"
       y1="0%"
       y2="100%">
      <stop
         offset="0"
         style="stop-color:#0abdc6; stop-opacity:1"
         id="stop5" />
      <stop
         offset="1"
         style="stop-color:#ea00d9; stop-opacity:1"
         id="stop6" />
    </linearGradient>
    <linearGradient
       id="fitdance"
       x1="0%"
       x2="0%"
       y1="0%"
       y2="100%">
      <stop
         offset="0%"
         style="stop-color:#1AD6AB; stop-opacity:1"
         id="stop7" />
      <stop
         offset="100%"
         style="stop-color:#329DB6; stop-opacity:1"
         id="stop8" />
    </linearGradient>
    <linearGradient
       id="oomox"
       x1="0%"
       x2="0%"
       y1="0%"
       y2="100%">
      <stop
         offset="0%"
         style="stop-color:#0abdc6; stop-opacity:1"
         id="stop9" />
      <stop
         offset="100%"
         style="stop-color:#b800ff; stop-opacity:1"
         id="stop10" />
    </linearGradient>
    <linearGradient
       id="rainblue"
       x1="0%"
       x2="0%"
       y1="0%"
       y2="100%">
      <stop
         offset="0%"
         style="stop-color:#00F260; stop-opacity:1"
         id="stop11" />
      <stop
         offset="100%"
         style="stop-color:#0575E6; stop-opacity:1"
         id="stop12" />
    </linearGradient>
    <linearGradient
       id="sunrise"
       x1="0%"
       x2="0%"
       y1="0%"
       y2="100%">
      <stop
         offset="0%"
         style="stop-color: #FF8501; stop-opacity:1"
         id="stop13" />
      <stop
         offset="100%"
         style="stop-color: #FFCB01; stop-opacity:1"
         id="stop14" />
    </linearGradient>
    <linearGradient
       id="telinkrin"
       x1="0%"
       x2="0%"
       y1="0%"
       y2="100%">
      <stop
         offset="0%"
         style="stop-color: #b2ced6; stop-opacity:1"
         id="stop15" />
      <stop
         offset="100%"
         style="stop-color: #6da5b7; stop-opacity:1"
         id="stop16" />
    </linearGradient>
    <linearGradient
       id="60spsycho"
       x1="0%"
       x2="0%"
       y1="0%"
       y2="100%">
      <stop
         offset="0%"
         style="stop-color: #df5940; stop-opacity:1"
         id="stop17" />
      <stop
         offset="25%"
         style="stop-color: #d8d15f; stop-opacity:1"
         id="stop18" />
      <stop
         offset="50%"
         style="stop-color: #e9882a; stop-opacity:1"
         id="stop19" />
      <stop
         offset="100%"
         style="stop-color: #279362; stop-opacity:1"
         id="stop20" />
    </linearGradient>
    <linearGradient
       id="90ssummer"
       x1="0%"
       x2="0%"
       y1="0%"
       y2="100%">
      <stop
         offset="0%"
         style="stop-color: #f618c7; stop-opacity:1"
         id="stop21" />
      <stop
         offset="20%"
         style="stop-color: #94ffab; stop-opacity:1"
         id="stop22" />
      <stop
         offset="50%"
         style="stop-color: #fbfd54; stop-opacity:1"
         id="stop23" />
      <stop
         offset="100%"
         style="stop-color: #0f83ae; stop-opacity:1"
         id="stop24" />
    </linearGradient>
  </defs>
  <g
     id="layer1"
     transform="matrix(1.0027979,0,0,1.0027979,-0.00592234,-0.00592239)">
    <path
       id="path10"
       style="font-variation-settings:normal;display:inline;opacity:1;vector-effect:none;fill:url(#oomox);fill-opacity:1;fill-rule:nonzero;stroke:none;stroke-width:0.444122;stroke-linecap:butt;stroke-linejoin:miter;stroke-miterlimit:4;stroke-dasharray:none;stroke-dashoffset:0;stroke-opacity:1;-inkscape-stroke:none;stop-color:#000000;stop-opacity:1"
       class="ColorScheme-Text"
       d="M 1.5822773 1.5822774 L 1.5822773 2.6304433 C 1.673651 2.6304433 1.7626142 2.618482 1.8471531 2.596432 L 1.8471531 1.8471531 L 2.596432 1.8471531 C 2.618482 1.7626141 2.6304433 1.6736513 2.6304433 1.5822774 L 1.5822773 1.5822774 z M 2.8948037 1.5822774 C 2.8948033 1.6729259 2.8859742 1.7617042 2.8685223 1.8471531 L 3.6992221 1.8471531 L 3.6992221 3.6992222 L 1.8471531 3.6992222 L 1.8471531 2.8685223 C 1.7617043 2.8859753 1.6729252 2.8948038 1.5822773 2.8948038 L 1.5822773 3.9635826 L 3.9635826 3.9635826 L 3.9635826 1.5822774 L 2.8948037 1.5822774 z " />
    <path
       d="m 2.8949138,1.5823325 c 0,0.090649 -0.00916,0.1791344 -0.026613,0.2645833 H 2.5965415 c 0.02205,-0.084539 0.033789,-0.1732096 0.033789,-0.2645833 z M 1.8469157,2.8683006 C 1.7614667,2.8857499 1.6729809,2.894914 1.5823324,2.894914 V 2.6303305 c 0.091374,0 0.1800443,-0.011739 0.2645833,-0.033789 z"
       style="font-variation-settings:normal;opacity:1;vector-effect:none;fill:url(#oomox);fill-opacity:1;fill-rule:nonzero;stroke:none;stroke-width:0.444122;stroke-linecap:butt;stroke-linejoin:miter;stroke-miterlimit:4;stroke-dasharray:none;stroke-dashoffset:0;stroke-opacity:1;-inkscape-stroke:none;stop-color:#000000;stop-opacity:1"
       id="path6"
       class="ColorScheme-Text" />
    <path
       id="path9"
       class="ColorScheme-Text"
       style="font-variation-settings:normal;opacity:1;vector-effect:none;fill:url(#oomox);fill-opacity:1;fill-rule:nonzero;stroke:none;stroke-width:0.444122;stroke-linecap:butt;stroke-linejoin:miter;stroke-miterlimit:4;stroke-dasharray:none;stroke-dashoffset:0;stroke-opacity:1;-inkscape-stroke:none;stop-color:#000000;stop-opacity:1"
       d="M 1.5822773 0.26975098 C 0.85671466 0.26975098 0.26975093 0.85671466 0.26975093 1.5822774 C 0.26975093 2.3078403 0.85671466 2.8948038 1.5822773 2.8948038 L 1.5822773 2.6304433 C 1.0041742 2.6304433 0.53411137 2.1603805 0.53411137 1.5822774 C 0.53411137 1.0041745 1.0041742 0.53411142 1.5822773 0.53411142 C 2.1603803 0.53411142 2.6304433 1.0041745 2.6304433 1.5822774 L 2.8948037 1.5822774 C 2.8948037 0.85671466 2.3078402 0.26975098 1.5822773 0.26975098 z M 2.596432 1.8471531 C 2.5010266 2.212936 2.2129359 2.5010267 1.8471531 2.596432 L 1.8471531 2.8685223 C 2.3601997 2.7637455 2.7637455 2.3601998 2.8685223 1.8471531 L 2.596432 1.8471531 z " />
  </g>
  <metadata
     id="metadata1">
    <rdf:RDF>
      <cc:Work
         rdf:about="">
        <dc:creator>
          <cc:Agent>
            <dc:title>dreifacherspass</dc:title>
          </cc:Agent>
        </dc:creator>
        <cc:license
           rdf:resource="http://creativecommons.org/licenses/by-sa/4.0/" />
      </cc:Work>
      <cc:License
         rdf:about="http://creativecommons.org/licenses/by-sa/4.0/">
        <cc:permits
           rdf:resource="http://creativecommons.org/ns#Reproduction" />
        <cc:permits
           rdf:resource="http://creativecommons.org/ns#Distribution" />
        <cc:requires
           rdf:resource="http://creativecommons.org/ns#Notice" />
        <cc:requires
           rdf:resource="http://creativecommons.org/ns#Attribution" />
        <cc:permits
           rdf:resource="http://creativecommons.org/ns#DerivativeWorks" />
        <cc:requires
           rdf:resource="http://creativecommons.org/ns#ShareAlike" />
      </cc:License>
    </rdf:RDF>
  </metadata>
</svg>
